public/static/img/common/delete.svg

<svg xmlns="http://www.w3.org/2000/svg" viewBox="0 0 18 17"><path d="M14.4813 3.59546H3.5192C3.38792 3.59546 3.26758 3.70486 3.26758 3.84708V15.4218C3.26758 16.1767 3.88023 16.7893 4.6351 16.7893H13.3763C13.7373 16.7893 14.0765 16.6471 14.3281 16.3955C14.5797 16.1438 14.7219 15.7938 14.7219 15.4327V3.83614C14.7329 3.70486 14.6235 3.59546 14.4813 3.59546ZM6.80125 13.0806C6.80125 13.2119 6.74655 13.3432 6.65903 13.4307C6.56057 13.5291 6.44023 13.5729 6.30895 13.5729C6.03544 13.5729 5.81664 13.3541 5.81664 13.0806V6.99785C5.81664 6.72435 6.03544 6.50554 6.30895 6.50554C6.58245 6.50554 6.80125 6.72435 6.80125 6.99785V13.0806ZM9.49254 13.0806C9.49254 13.3541 9.27373 13.5729 9.00023 13.5729C8.72672 13.5729 8.50792 13.3541 8.50792 13.0806V6.99785C8.50792 6.72435 8.72672 6.50554 9.00023 6.50554C9.27373 6.50554 9.49254 6.72435 9.49254 6.99785V13.0806ZM12.1948 13.0806C12.1948 13.3541 11.976 13.5729 11.7024 13.5729C11.4289 13.5729 11.2101 13.3541 11.1992 13.0696V6.99785C11.1992 6.72435 11.418 6.50554 11.7024 6.50554C11.976 6.50554 12.1948 6.72435 12.1948 6.99785V13.0806Z" fill="white"/><path d="M16.5925 3.09238H12.9932V2.1187C12.9932 1.45135 12.4462 0.915283 11.7898 0.915283H6.24311C5.57576 0.915283 5.03969 1.46229 5.03969 2.1187V3.09238H1.40756C1.10123 3.09238 0.849609 3.344 0.849609 3.65033C0.849609 3.95665 1.10123 4.20827 1.40756 4.20827H16.5925C16.8988 4.20827 17.1505 3.95665 17.1505 3.65033C17.1505 3.344 16.8988 3.09238 16.5925 3.09238ZM11.8773 3.09238H6.15559V2.02024H11.8773V3.09238Z" fill="white"/></svg>

<svg xmlns="http://www.w3.org/2000/svg" viewBox="0 0 18 17"><path d="M14.481 3.595H3.52a.254.254 0 0 0-.251.252v11.575c0 .755.612 1.367 1.367 1.367h8.741a1.34 1.34 0 0 0 1.346-1.356V3.836c.01-.131-.098-.24-.24-.24Zm-7.68 9.486a.506.506 0 0 1-.142.35.48.48 0 0 1-.35.142.49.49 0 0 1-.492-.492V6.998a.49.49 0 0 1 .492-.492.49.49 0 0 1 .492.492v6.083Zm2.692 0a.49.49 0 0 1-.493.492.49.49 0 0 1-.492-.492V6.998A.49.49 0 0 1 9 6.506a.49.49 0 0 1 .493.492v6.083Zm2.702 0a.49.49 0 0 1-.493.492.509.509 0 0 1-.503-.503V6.998c0-.274.219-.492.503-.492a.49.49 0 0 1 .493.492v6.083Z" fill="#fff"/><path d="M16.593 3.092h-3.6V2.12c0-.668-.547-1.204-1.203-1.204H6.243c-.667 0-1.203.547-1.203 1.204v.973H1.408a.56.56 0 0 0-.558.558.56.56 0 0 0 .558.558h15.185a.56.56 0 0 0 .558-.558.56.56 0 0 0-.558-.558Zm-4.716 0H6.156V2.02h5.721v1.072Z" fill="#fff"/></svg>
